X: 2159
T: Polonäs efter Johan August Ericsson
S: efter Johan August Ericsson
B: [[Notböcker/Johan August Ericssons notbok]]: [[http://www.smus.se/earkiv/fmk/browselarge.php?lang=sw&katalogid=M+19&bildnr=00020|SMUS - katalog M19 bild 20]] (nr 61)
O: Södermanland
R: Polonäs
Z: Nils L, 2011-11-18
M: 3/4
L: 1/16
K: Dm
fgaf efge defg | A2AB c2cd e2A2 | b2a2 g2f2 e2d2 | ^cdea A8 |
fgaf efge defg | A2AB c2cd e2A2 | b2a2 g2f2 e2d2 | ^fae^c d8 ::
DFAF DFAF DFAF | CEAE CEAE CEAE | DFAF DFAF DFAF | CEAE CEAE CEAE |
ABcA d2dc B2A2 | GABG c2cB A2G2 | FGAF b2a2 g2f2 | eae^c d8 :|
(:musicend:)
(:music:)
